X: 1
T: Donnelly's
T: The Callan Lasses
M: 4/4
L: 1/8
R: reel
K: Dmaj
defd BcdA|BAFB ADFA|dF~F2 cFBF|AFEF D3E|
FADE FGAB|Addc defg|afef dB~B2|ABGE ED~D2:|
|:F3E FGAB|Addc defd|(3efe df edcB|Adfd efdB|
AFFE FGAB|Addc defg|afef dB~B2|ABGE ED~D2:|
